assets/icons/address-book/filled.svg

<?xml version="1.0" encoding="UTF-8" standalone="no"?>
<svg
   viewBox="0 0 24 24"
   height="24"
   id="svg7384"
   version="1.1"
   width="24"
   sodipodi:docname="filled.svg"
   inkscape:version="1.2 (1:1.2.1+202207142221+cd75a1ee6d)"
   xmlns:inkscape="http://www.inkscape.org/namespaces/inkscape"
   xmlns:sodipodi="http://sodipodi.sourceforge.net/DTD/sodipodi-0.dtd"
   xmlns="http://www.w3.org/2000/svg"
   xmlns:svg="http://www.w3.org/2000/svg"
   xmlns:rdf="http://www.w3.org/1999/02/22-rdf-syntax-ns#"
   xmlns:cc="http://creativecommons.org/ns#"
   xmlns:dc="http://purl.org/dc/elements/1.1/">
  <sodipodi:namedview
     id="namedview24"
     pagecolor="#ffffff"
     bordercolor="#666666"
     borderopacity="1.0"
     inkscape:pageshadow="2"
     inkscape:pageopacity="0.0"
     inkscape:pagecheckerboard="0"
     showgrid="true"
     inkscape:zoom="19.79899"
     inkscape:cx="8.4347737"
     inkscape:cy="12.374369"
     inkscape:window-width="1920"
     inkscape:window-height="1043"
     inkscape:window-x="0"
     inkscape:window-y="0"
     inkscape:window-maximized="1"
     inkscape:current-layer="svg7384"
     width="24px"
     inkscape:showpageshadow="2"
     inkscape:deskcolor="#d1d1d1">
    <inkscape:grid
       type="xygrid"
       id="grid14" />
    <inkscape:grid
       type="xygrid"
       id="grid831"
       dotted="true"
       spacingx="0.5"
       spacingy="0.5"
       empspacing="10" />
  </sodipodi:namedview>
  <metadata
     id="metadata20854">
    <rdf:RDF>
      <cc:Work
         rdf:about="">
        <dc:format>image/svg+xml</dc:format>
        <dc:type
           rdf:resource="http://purl.org/dc/dcmitype/StillImage" />
      </cc:Work>
    </rdf:RDF>
  </metadata>
  <defs
     id="defs7386">
    <linearGradient
       id="linearGradient5606"
       inkscape:swatch="solid">
      <stop
         id="stop5608"
         offset="0"
         style="stop-color:#000000;stop-opacity:1;" />
    </linearGradient>
    <linearGradient
       id="linearGradient4526"
       inkscape:swatch="solid">
      <stop
         id="stop4528"
         offset="0"
         style="stop-color:#ffffff;stop-opacity:1;" />
    </linearGradient>
    <linearGradient
       id="linearGradient3600-4"
       inkscape:swatch="gradient">
      <stop
         id="stop3602-7"
         offset="0"
         style="stop-color:#f4f4f4;stop-opacity:1" />
      <stop
         id="stop3604-6"
         offset="1"
         style="stop-color:#dbdbdb;stop-opacity:1" />
    </linearGradient>
  </defs>
  <path
     id="path866"
     style="color:#000000;fill:#808080;fill-opacity:1"
     d="M 6.7871094 2 C 6.110165 2.00559 5.5365062 2.0481534 5.0273438 2.3027344 C 4.6879021 2.4724552 4.3973381 2.7651688 4.2304688 3.140625 C 4.0635992 3.5160812 4 3.9583349 4 4.5 L 4 19.5 C 4 20.041664 4.0635992 20.483918 4.2304688 20.859375 C 4.3973381 21.234832 4.6879021 21.527544 5.0273438 21.697266 C 5.7062271 22.036706 6.500003 22 7.5 22 L 16 22 L 16 2 L 7.5 2 C 7.2500007 2 7.0127574 1.99814 6.7871094 2 z M 17 2 L 17 22 C 17.767331 22.000149 18.41281 21.977189 18.972656 21.697266 C 19.312099 21.527544 19.602661 21.234832 19.769531 20.859375 C 19.936401 20.483918 20 20.041664 20 19.5 L 20 4.5 C 20 3.9583349 19.9364 3.5160812 19.769531 3.140625 C 19.602661 2.7651688 19.312099 2.4724552 18.972656 2.3027344 C 18.41281 2.0228112 17.767331 1.9998519 17 2 z M 11 7 C 12.104567 7 13 8.1192909 13 9.5 C 13 10.88071 12.104567 12 11 12 C 9.8954327 12 9 10.88071 9 9.5 C 9 8.1192909 9.8954327 7 11 7 z M 11 8 C 10.447717 8 10 8.6715745 10 9.5 C 10 10.328425 10.447717 11 11 11 C 11.552283 11 12 10.328425 12 9.5 C 12 8.6715745 11.552283 8 11 8 z M 11 13 C 12.892851 13 13.983541 13.872735 14.494141 14.748047 C 15.004698 15.623359 15 16.5 15 16.5 C 14.999972 16.776131 14.776131 16.999972 14.5 17 L 7.5 17 C 7.2238697 16.999972 7.0000276 16.776131 7 16.5 C 7 16.5 6.9952604 15.623359 7.5058594 14.748047 C 8.0164583 13.872735 9.1071486 13 11 13 z M 11 14 C 9.3928619 14 8.7335392 14.627271 8.3691406 15.251953 C 8.1507779 15.626298 8.1849435 15.76046 8.1484375 16 L 13.851562 16 C 13.815059 15.76046 13.849227 15.626298 13.630859 15.251953 C 13.266462 14.627271 12.607137 14 11 14 z " />
</svg>

<svg height="24" width="24" xmlns="http://www.w3.org/2000/svg"><path style="color:#000;fill:gray;fill-opacity:1" d="M6.787 2c-.677.006-1.25.048-1.76.303-.34.17-.63.462-.797.838C4.064 3.516 4 3.958 4 4.5v15c0 .542.064.984.23 1.36.167.375.458.668.797.837.68.34 1.473.303 2.473.303H16V2H7.5c-.25 0-.487-.002-.713 0zM17 2v20c.767 0 1.413-.023 1.973-.303.34-.17.63-.462.797-.838.166-.375.23-.817.23-1.359v-15c0-.542-.064-.984-.23-1.36a1.72 1.72 0 0 0-.797-.837C18.413 2.023 17.767 2 17 2zm-6 5c1.105 0 2 1.12 2 2.5s-.895 2.5-2 2.5-2-1.12-2-2.5S9.895 7 11 7zm0 1c-.552 0-1 .672-1 1.5s.448 1.5 1 1.5 1-.672 1-1.5S11.552 8 11 8zm0 5c1.893 0 2.984.873 3.494 1.748.51.875.506 1.752.506 1.752a.5.5 0 0 1-.5.5h-7a.5.5 0 0 1-.5-.5s-.005-.877.506-1.752C8.016 13.873 9.107 13 11 13zm0 1c-1.607 0-2.266.627-2.63 1.252-.22.374-.185.508-.222.748h5.704c-.037-.24-.003-.374-.221-.748C13.266 14.627 12.607 14 11 14z"/></svg>
